X: 5320
T: Brucie And The Troopers
R: reel
M: 4/4
K: Gmajor
dB ~B2 ABGA|Bded BAAe|dB ~B2 ABGA|Bdgd BGGe|
dB ~B2 ABGA|Bded BAAe|dBde gage|dBGB AGGe:|
g2 gd eged|dB ~B2 ABGf|g2 gd eged|eaag agef|
g2 gd eged|dB ~B2 ABGB|dB ~B2 ABGA|Bdgf g2 gd:|

